packages/tokens/icons/chartPie/size16Px.svg

<svg viewBox="0 0 16 16" fill="none" xmlns="http://www.w3.org/2000/svg" width="1em" height="1em"><path d="M10.3068 1.58031C12.396 1.95502 14.0449 3.60386 14.4196 5.6931C14.438 5.79583 14.4075 5.88733 14.3363 5.96262C14.261 6.04217 14.1407 6.1 13.9999 6.1L10.3999 6.1C10.1238 6.1 9.8999 5.87614 9.8999 5.6V2C9.8999 1.85921 9.95773 1.73887 10.0373 1.6636C10.1126 1.59237 10.2041 1.56188 10.3068 1.58031Z" stroke="currentColor" stroke-linejoin="round"/><path d="M14.4345 8.92645C13.9852 12.0773 11.2751 14.5 8 14.5C4.41015 14.5 1.5 11.5899 1.5 8C1.5 4.72489 3.92269 2.01477 7.07356 1.56546C7.2711 1.53729 7.5 1.70133 7.5 2L7.5 7C7.5 7.82843 8.17157 8.5 9 8.5L14 8.5C14.2987 8.5 14.4627 8.7289 14.4345 8.92645Z" stroke="currentColor" stroke-linejoin="round"/></svg>

<svg xmlns="http://www.w3.org/2000/svg" fill="none" viewBox="0 0 16 16" width="1em" height="1em"><path stroke="currentColor" stroke-linejoin="round" d="M10.307 1.58a5.105 5.105 0 0 1 4.113 4.113.3.3 0 0 1-.084.27A.464.464 0 0 1 14 6.1h-3.6a.5.5 0 0 1-.5-.5V2c0-.14.058-.261.137-.336a.3.3 0 0 1 .27-.084Z"/><path stroke="currentColor" stroke-linejoin="round" d="M14.434 8.926A6.501 6.501 0 0 1 1.5 8a6.502 6.502 0 0 1 5.574-6.435c.197-.028.426.136.426.435v5A1.5 1.5 0 0 0 9 8.5h5c.299 0 .463.229.434.426Z"/></svg>
